src/images/advisoryboard.svg

<svg fill="none" height="904" viewBox="0 0 1920 904" width="1920" xmlns="http://www.w3.org/2000/svg" xmlns:xlink="http://www.w3.org/1999/xlink"><filter id="a" color-interpolation-filters="sRGB" filterUnits="userSpaceOnUse" height="903.6" width="1991.44" x="-35.9453" y=".199951"><feFlood flood-opacity="0" result="BackgroundImageFix"/><feColorMatrix in="SourceAlpha" type="matrix" values="0 0 0 0 0 0 0 0 0 0 0 0 0 0 0 0 0 0 127 0"/><feOffset dy="4"/><feGaussianBlur stdDeviation="50"/><feColorMatrix type="matrix" values="0 0 0 0 0 0 0 0 0 0 0 0 0 0 0 0 0 0 0.25 0"/><feBlend in2="BackgroundImageFix" mode="normal" result="effect1_dropShadow"/><feBlend in="SourceGraphic" in2="effect1_dropShadow" mode="normal" result="shape"/></filter><g filter="url(#a)"><path d="m285.255 340.2h-140l-27.6 64.8h-53.6003l126.0003-280h51.2l126.4 280h-54.4zm-17.2-40.8-52.8-122.4-52.4 122.4zm337.656-191.2v296.8h-48v-27.6c-8.267 10.133-18.533 17.733-30.8 22.8-12 5.067-25.333 7.6-40 7.6-20.533 0-39.067-4.533-55.6-13.6-16.267-9.067-29.067-21.867-38.4-38.4-9.333-16.8-14-36-14-57.6s4.667-40.667 14-57.2 22.133-29.333 38.4-38.4c16.533-9.067 35.067-13.6 55.6-13.6 14.133 0 27.067 2.4 38.8 7.2s21.733 12 30 21.6v-109.6zm-112.8 256.8c12 0 22.8-2.667 32.4-8 9.6-5.6 17.2-13.467 22.8-23.6s8.4-21.867 8.4-35.2-2.8-25.067-8.4-35.2-13.2-17.867-22.8-23.2c-9.6-5.6-20.4-8.4-32.4-8.4s-22.8 2.8-32.4 8.4c-9.6 5.333-17.2 13.067-22.8 23.2s-8.4 21.867-8.4 35.2 2.8 25.067 8.4 35.2 13.2 18 22.8 23.6c9.6 5.333 20.4 8 32.4 8zm378.209-173.6-91.6 213.6h-51.6l-91.6-213.6h52l66.4 158.4 68.4-158.4zm31.25 0h50v213.6h-50zm25.2-35.2c-9.066 0-16.666-2.8-22.8-8.4-6.133-5.867-9.2-13.067-9.2-21.6s3.067-15.6 9.2-21.2c6.134-5.8667 13.734-8.8 22.8-8.8 9.067 0 16.667 2.8 22.8 8.4 6.134 5.333 9.2 12.133 9.2 20.4 0 8.8-3.066 16.267-9.2 22.4-5.866 5.867-13.466 8.8-22.8 8.8zm156.43 251.6c-17.34 0-34.27-2.267-50.8-6.8-16.54-4.533-29.74-10.267-39.605-17.2l19.205-38c9.6 6.4 21.06 11.6 34.4 15.6 13.6 3.733 26.93 5.6 40 5.6 29.86 0 44.8-7.867 44.8-23.6 0-7.467-3.87-12.667-11.6-15.6-7.47-2.933-19.6-5.733-36.4-8.4-17.6-2.667-32-5.733-43.2-9.2-10.94-3.467-20.54-9.467-28.8-18-8-8.8-12.005-20.933-12.005-36.4 0-20.267 8.405-36.4 25.205-48.4 17.06-12.267 40-18.4 68.8-18.4 14.66 0 29.33 1.733 44 5.2 14.66 3.2 26.66 7.6 36 13.2l-19.2 38c-18.14-10.667-38.54-16-61.2-16-14.67 0-25.87 2.267-33.6 6.8-7.47 4.267-11.2 10-11.2 17.2 0 8 4 13.733 12 17.2 8.26 3.2 20.93 6.267 38 9.2 17.06 2.667 31.06 5.733 42 9.2 10.93 3.467 20.26 9.333 28 17.6 8 8.267 12 20 12 35.2 0 20-8.67 36-26 48-17.34 12-40.94 18-70.8 18zm235.85 0c-21.6 0-41.06-4.667-58.4-14-17.33-9.333-30.93-22.267-40.8-38.8-9.6-16.8-14.4-35.733-14.4-56.8s4.8-39.867 14.4-56.4c9.87-16.533 23.47-29.467 40.8-38.8 17.34-9.333 36.8-14 58.4-14 21.87 0 41.47 4.667 58.8 14 17.34 9.333 30.8 22.267 40.4 38.8 9.87 16.533 14.8 35.333 14.8 56.4s-4.93 40-14.8 56.8c-9.6 16.533-23.06 29.467-40.4 38.8-17.33 9.333-36.93 14-58.8 14zm0-42.8c18.4 0 33.6-6.133 45.6-18.4s18-28.4 18-48.4-6-36.133-18-48.4-27.2-18.4-45.6-18.4-33.6 6.133-45.6 18.4c-11.73 12.267-17.6 28.4-17.6 48.4s5.87 36.133 17.6 48.4c12 12.267 27.2 18.4 45.6 18.4zm209.42-142.4c14.4-22.4 39.73-33.6 76-33.6v47.6c-4.27-.8-8.14-1.2-11.6-1.2-19.47 0-34.67 5.733-45.6 17.2-10.94 11.2-16.4 27.467-16.4 48.8v103.6h-50v-213.6h47.6zm326.23-31.2-100 230.8c-9.34 23.2-20.67 39.467-34 48.8-13.34 9.6-29.47 14.4-48.4 14.4-10.67 0-21.2-1.733-31.6-5.2s-18.94-8.267-25.6-14.4l20-36.8c4.8 4.533 10.4 8.133 16.8 10.8 6.66 2.667 13.33 4 20 4 8.8 0 16-2.267 21.6-6.8 5.86-4.533 11.2-12.133 16-22.8l3.6-8.4-93.2-214.4h52l67.2 158 67.6-158zm-1280.008 460c15.467 5.067 27.734 13.6 36.8 25.6 9.067 11.733 13.6 26.4 13.6 44 0 24.267-9.333 43.067-28 56.4-18.666 13.067-45.866 19.6-81.6 19.6h-139.2v-280h131.2c33.067 0 58.534 6.533 76.4 19.6 17.867 12.8 26.8 30.533 26.8 53.2 0 13.867-3.2 26.133-9.6 36.8s-15.2 18.933-26.4 24.8zm-146.4-93.6v77.2h73.6c18.134 0 32-3.2 41.6-9.6 9.867-6.667 14.8-16.267 14.8-28.8 0-12.8-4.933-22.4-14.8-28.8-9.6-6.667-23.466-10-41.6-10zm84 198.4c40.267 0 60.4-13.467 60.4-40.4s-20.133-40.4-60.4-40.4h-84v80.8zm259.497 43.6c-21.6 0-41.067-4.667-58.4-14s-30.933-22.267-40.8-38.8c-9.6-16.8-14.4-35.733-14.4-56.8s4.8-39.867 14.4-56.4c9.867-16.533 23.467-29.467 40.8-38.8s36.8-14 58.4-14c21.867 0 41.467 4.667 58.8 14s30.8 22.267 40.4 38.8c9.867 16.533 14.8 35.333 14.8 56.4s-4.933 40-14.8 56.8c-9.6 16.533-23.067 29.467-40.4 38.8s-36.933 14-58.8 14zm0-42.8c18.4 0 33.6-6.133 45.6-18.4s18-28.4 18-48.4-6-36.133-18-48.4-27.2-18.4-45.6-18.4-33.6 6.133-45.6 18.4c-11.733 12.267-17.6 28.4-17.6 48.4s5.867 36.133 17.6 48.4c12 12.267 27.2 18.4 45.6 18.4zm240.681-176c31.46 0 55.46 7.6 72 22.8 16.8 14.933 25.2 37.6 25.2 68v125.2h-47.2v-26c-6.14 9.333-14.94 16.533-26.4 21.6-11.2 4.8-24.8 7.2-40.803 7.2-16 0-30-2.667-42-8-12-5.6-21.333-13.2-28-22.8-6.4-9.867-9.6-20.933-9.6-33.2 0-19.2 7.067-34.533 21.2-46 14.4-11.733 36.934-17.6 67.603-17.6h55.2v-3.2c0-14.933-4.54-26.4-13.6-34.4-8.8-8-22-12-39.6-12-12.003 0-23.869 1.867-35.603 5.6-11.466 3.733-21.2 8.933-29.2 15.6l-19.6-36.4c11.2-8.533 24.667-15.067 40.4-19.6 15.734-4.533 32.4-6.8 50.003-6.8zm-6.8 182.4c12.53 0 23.6-2.8 33.2-8.4 9.86-5.867 16.8-14.133 20.8-24.8v-24.8h-51.6c-28.803 0-43.203 9.467-43.203 28.4 0 9.067 3.6 16.267 10.8 21.6s17.2 8 30.003 8zm215.77-148.8c14.4-22.4 39.73-33.6 76-33.6v47.6c-4.27-.8-8.14-1.2-11.6-1.2-19.47 0-34.67 5.733-45.6 17.2-10.94 11.2-16.4 27.467-16.4 48.8v103.6h-50v-213.6h47.6zm325.66-114.4v296.8h-48v-27.6c-8.27 10.133-18.53 17.733-30.8 22.8-12 5.067-25.33 7.6-40 7.6-20.53 0-39.07-4.533-55.6-13.6-16.27-9.067-29.07-21.867-38.4-38.4-9.33-16.8-14-36-14-57.6s4.67-40.667 14-57.2 22.13-29.333 38.4-38.4c16.53-9.067 35.07-13.6 55.6-13.6 14.13 0 27.07 2.4 38.8 7.2s21.73 12 30 21.6v-109.6zm-112.8 256.8c12 0 22.8-2.667 32.4-8 9.6-5.6 17.2-13.467 22.8-23.6s8.4-21.867 8.4-35.2-2.8-25.067-8.4-35.2-13.2-17.867-22.8-23.2c-9.6-5.6-20.4-8.4-32.4-8.4s-22.8 2.8-32.4 8.4c-9.6 5.333-17.2 13.067-22.8 23.2s-8.4 21.867-8.4 35.2 2.8 25.067 8.4 35.2 13.2 18 22.8 23.6c9.6 5.333 20.4 8 32.4 8z" fill="#2b2729"/></g></svg>

<svg width="1920" height="904" viewBox="0 0 1920 904" fill="none" xmlns="http://www.w3.org/2000/svg">
<g filter="url(#filter0_d)">
<path d="M285.255 340.2H145.255L117.655 405H64.0547L190.055 125H241.255L367.655 405H313.255L285.255 340.2ZM268.055 299.4L215.255 177L162.855 299.4H268.055ZM605.711 108.2V405H557.711V377.4C549.444 387.533 539.178 395.133 526.911 400.2C514.911 405.267 501.578 407.8 486.911 407.8C466.378 407.8 447.844 403.267 431.311 394.2C415.044 385.133 402.244 372.333 392.911 355.8C383.578 339 378.911 319.8 378.911 298.2C378.911 276.6 383.578 257.533 392.911 241C402.244 224.467 415.044 211.667 431.311 202.6C447.844 193.533 466.378 189 486.911 189C501.044 189 513.978 191.4 525.711 196.2C537.444 201 547.444 208.2 555.711 217.8V108.2H605.711ZM492.911 365C504.911 365 515.711 362.333 525.311 357C534.911 351.4 542.511 343.533 548.111 333.4C553.711 323.267 556.511 311.533 556.511 298.2C556.511 284.867 553.711 273.133 548.111 263C542.511 252.867 534.911 245.133 525.311 239.8C515.711 234.2 504.911 231.4 492.911 231.4C480.911 231.4 470.111 234.2 460.511 239.8C450.911 245.133 443.311 252.867 437.711 263C432.111 273.133 429.311 284.867 429.311 298.2C429.311 311.533 432.111 323.267 437.711 333.4C443.311 343.533 450.911 351.4 460.511 357C470.111 362.333 480.911 365 492.911 365ZM871.12 191.4L779.52 405H727.92L636.32 191.4H688.32L754.72 349.8L823.12 191.4H871.12ZM902.37 191.4H952.37V405H902.37V191.4ZM927.57 156.2C918.504 156.2 910.904 153.4 904.77 147.8C898.637 141.933 895.57 134.733 895.57 126.2C895.57 117.667 898.637 110.6 904.77 105C910.904 99.1333 918.504 96.2 927.57 96.2C936.637 96.2 944.237 99 950.37 104.6C956.504 109.933 959.57 116.733 959.57 125C959.57 133.8 956.504 141.267 950.37 147.4C944.504 153.267 936.904 156.2 927.57 156.2ZM1084 407.8C1066.66 407.8 1049.73 405.533 1033.2 401C1016.66 396.467 1003.46 390.733 993.595 383.8L1012.8 345.8C1022.4 352.2 1033.86 357.4 1047.2 361.4C1060.8 365.133 1074.13 367 1087.2 367C1117.06 367 1132 359.133 1132 343.4C1132 335.933 1128.13 330.733 1120.4 327.8C1112.93 324.867 1100.8 322.067 1084 319.4C1066.4 316.733 1052 313.667 1040.8 310.2C1029.86 306.733 1020.26 300.733 1012 292.2C1004 283.4 999.995 271.267 999.995 255.8C999.995 235.533 1008.4 219.4 1025.2 207.4C1042.26 195.133 1065.2 189 1094 189C1108.66 189 1123.33 190.733 1138 194.2C1152.66 197.4 1164.66 201.8 1174 207.4L1154.8 245.4C1136.66 234.733 1116.26 229.4 1093.6 229.4C1078.93 229.4 1067.73 231.667 1060 236.2C1052.53 240.467 1048.8 246.2 1048.8 253.4C1048.8 261.4 1052.8 267.133 1060.8 270.6C1069.06 273.8 1081.73 276.867 1098.8 279.8C1115.86 282.467 1129.86 285.533 1140.8 289C1151.73 292.467 1161.06 298.333 1168.8 306.6C1176.8 314.867 1180.8 326.6 1180.8 341.8C1180.8 361.8 1172.13 377.8 1154.8 389.8C1137.46 401.8 1113.86 407.8 1084 407.8ZM1319.85 407.8C1298.25 407.8 1278.79 403.133 1261.45 393.8C1244.12 384.467 1230.52 371.533 1220.65 355C1211.05 338.2 1206.25 319.267 1206.25 298.2C1206.25 277.133 1211.05 258.333 1220.65 241.8C1230.52 225.267 1244.12 212.333 1261.45 203C1278.79 193.667 1298.25 189 1319.85 189C1341.72 189 1361.32 193.667 1378.65 203C1395.99 212.333 1409.45 225.267 1419.05 241.8C1428.92 258.333 1433.85 277.133 1433.85 298.2C1433.85 319.267 1428.92 338.2 1419.05 355C1409.45 371.533 1395.99 384.467 1378.65 393.8C1361.32 403.133 1341.72 407.8 1319.85 407.8ZM1319.85 365C1338.25 365 1353.45 358.867 1365.45 346.6C1377.45 334.333 1383.45 318.2 1383.45 298.2C1383.45 278.2 1377.45 262.067 1365.45 249.8C1353.45 237.533 1338.25 231.4 1319.85 231.4C1301.45 231.4 1286.25 237.533 1274.25 249.8C1262.52 262.067 1256.65 278.2 1256.65 298.2C1256.65 318.2 1262.52 334.333 1274.25 346.6C1286.25 358.867 1301.45 365 1319.85 365ZM1529.27 222.6C1543.67 200.2 1569 189 1605.27 189V236.6C1601 235.8 1597.13 235.4 1593.67 235.4C1574.2 235.4 1559 241.133 1548.07 252.6C1537.13 263.8 1531.67 280.067 1531.67 301.4V405H1481.67V191.4H1529.27V222.6ZM1855.5 191.4L1755.5 422.2C1746.16 445.4 1734.83 461.667 1721.5 471C1708.16 480.6 1692.03 485.4 1673.1 485.4C1662.43 485.4 1651.9 483.667 1641.5 480.2C1631.1 476.733 1622.56 471.933 1615.9 465.8L1635.9 429C1640.7 433.533 1646.3 437.133 1652.7 439.8C1659.36 442.467 1666.03 443.8 1672.7 443.8C1681.5 443.8 1688.7 441.533 1694.3 437C1700.16 432.467 1705.5 424.867 1710.3 414.2L1713.9 405.8L1620.7 191.4H1672.7L1739.9 349.4L1807.5 191.4H1855.5ZM575.492 651.4C590.959 656.467 603.226 665 612.292 677C621.359 688.733 625.892 703.4 625.892 721C625.892 745.267 616.559 764.067 597.892 777.4C579.226 790.467 552.026 797 516.292 797H377.092V517H508.292C541.359 517 566.826 523.533 584.692 536.6C602.559 549.4 611.492 567.133 611.492 589.8C611.492 603.667 608.292 615.933 601.892 626.6C595.492 637.267 586.692 645.533 575.492 651.4ZM429.092 557.8V635H502.692C520.826 635 534.692 631.8 544.292 625.4C554.159 618.733 559.092 609.133 559.092 596.6C559.092 583.8 554.159 574.2 544.292 567.8C534.692 561.133 520.826 557.8 502.692 557.8H429.092ZM513.092 756.2C553.359 756.2 573.492 742.733 573.492 715.8C573.492 688.867 553.359 675.4 513.092 675.4H429.092V756.2H513.092ZM772.589 799.8C750.989 799.8 731.522 795.133 714.189 785.8C696.856 776.467 683.256 763.533 673.389 747C663.789 730.2 658.989 711.267 658.989 690.2C658.989 669.133 663.789 650.333 673.389 633.8C683.256 617.267 696.856 604.333 714.189 595C731.522 585.667 750.989 581 772.589 581C794.456 581 814.056 585.667 831.389 595C848.722 604.333 862.189 617.267 871.789 633.8C881.656 650.333 886.589 669.133 886.589 690.2C886.589 711.267 881.656 730.2 871.789 747C862.189 763.533 848.722 776.467 831.389 785.8C814.056 795.133 794.456 799.8 772.589 799.8ZM772.589 757C790.989 757 806.189 750.867 818.189 738.6C830.189 726.333 836.189 710.2 836.189 690.2C836.189 670.2 830.189 654.067 818.189 641.8C806.189 629.533 790.989 623.4 772.589 623.4C754.189 623.4 738.989 629.533 726.989 641.8C715.256 654.067 709.389 670.2 709.389 690.2C709.389 710.2 715.256 726.333 726.989 738.6C738.989 750.867 754.189 757 772.589 757ZM1013.27 581C1044.73 581 1068.73 588.6 1085.27 603.8C1102.07 618.733 1110.47 641.4 1110.47 671.8V797H1063.27V771C1057.13 780.333 1048.33 787.533 1036.87 792.6C1025.67 797.4 1012.07 799.8 996.067 799.8C980.067 799.8 966.067 797.133 954.067 791.8C942.067 786.2 932.734 778.6 926.067 769C919.667 759.133 916.467 748.067 916.467 735.8C916.467 716.6 923.534 701.267 937.667 689.8C952.067 678.067 974.601 672.2 1005.27 672.2H1060.47V669C1060.47 654.067 1055.93 642.6 1046.87 634.6C1038.07 626.6 1024.87 622.6 1007.27 622.6C995.267 622.6 983.401 624.467 971.667 628.2C960.201 631.933 950.467 637.133 942.467 643.8L922.867 607.4C934.067 598.867 947.534 592.333 963.267 587.8C979.001 583.267 995.667 581 1013.27 581ZM1006.47 763.4C1019 763.4 1030.07 760.6 1039.67 755C1049.53 749.133 1056.47 740.867 1060.47 730.2V705.4H1008.87C980.067 705.4 965.667 714.867 965.667 733.8C965.667 742.867 969.267 750.067 976.467 755.4C983.667 760.733 993.667 763.4 1006.47 763.4ZM1222.24 614.6C1236.64 592.2 1261.97 581 1298.24 581V628.6C1293.97 627.8 1290.1 627.4 1286.64 627.4C1267.17 627.4 1251.97 633.133 1241.04 644.6C1230.1 655.8 1224.64 672.067 1224.64 693.4V797H1174.64V583.4H1222.24V614.6ZM1547.9 500.2V797H1499.9V769.4C1491.63 779.533 1481.37 787.133 1469.1 792.2C1457.1 797.267 1443.77 799.8 1429.1 799.8C1408.57 799.8 1390.03 795.267 1373.5 786.2C1357.23 777.133 1344.43 764.333 1335.1 747.8C1325.77 731 1321.1 711.8 1321.1 690.2C1321.1 668.6 1325.77 649.533 1335.1 633C1344.43 616.467 1357.23 603.667 1373.5 594.6C1390.03 585.533 1408.57 581 1429.1 581C1443.23 581 1456.17 583.4 1467.9 588.2C1479.63 593 1489.63 600.2 1497.9 609.8V500.2H1547.9ZM1435.1 757C1447.1 757 1457.9 754.333 1467.5 749C1477.1 743.4 1484.7 735.533 1490.3 725.4C1495.9 715.267 1498.7 703.533 1498.7 690.2C1498.7 676.867 1495.9 665.133 1490.3 655C1484.7 644.867 1477.1 637.133 1467.5 631.8C1457.9 626.2 1447.1 623.4 1435.1 623.4C1423.1 623.4 1412.3 626.2 1402.7 631.8C1393.1 637.133 1385.5 644.867 1379.9 655C1374.3 665.133 1371.5 676.867 1371.5 690.2C1371.5 703.533 1374.3 715.267 1379.9 725.4C1385.5 735.533 1393.1 743.4 1402.7 749C1412.3 754.333 1423.1 757 1435.1 757Z" fill="#2B2729"/>
</g>
<defs>
<filter id="filter0_d" x="-35.9453" y="0.199951" width="1991.44" height="903.6" filterUnits="userSpaceOnUse" color-interpolation-filters="sRGB">
<feFlood flood-opacity="0" result="BackgroundImageFix"/>
<feColorMatrix in="SourceAlpha" type="matrix" values="0 0 0 0 0 0 0 0 0 0 0 0 0 0 0 0 0 0 127 0"/>
<feOffset dy="4"/>
<feGaussianBlur stdDeviation="50"/>
<feColorMatrix type="matrix" values="0 0 0 0 0 0 0 0 0 0 0 0 0 0 0 0 0 0 0.25 0"/>
<feBlend mode="normal" in2="BackgroundImageFix" result="effect1_dropShadow"/>
<feBlend mode="normal" in="SourceGraphic" in2="effect1_dropShadow" result="shape"/>
</filter>
</defs>
</svg>
